icon-themes/breeze_svg/cmd/sc_extrusionlightingfloater.svg

<svg viewBox="0 0 16 16" xmlns="http://www.w3.org/2000/svg">/&gt;<path d="m7.5 2v1h1v-1zm-3.375 1.4375c-.2478955.2107454-.4767546.4396045-.6875.6875l.71875.71875c.2037941-.2469414.4405586-.4837059.6875-.6875zm7.75 0-.71875.71875c.246941.2037941.483706.4405586.6875.6875l.71875-.71875c-.210745-.2478955-.439604-.4767546-.6875-.6875zm-3.875.5625c-2.2091387 0-4 1.7908607-4 4 0 2.209139 1.7908613 4 4 4 2.209139 0 4-1.790861 4-4 0-2.2091393-1.790861-4-4-4zm0 1c1.6568542 0 3 1.3431455 3 3s-1.3431458 3-3 3-3-1.3431455-3-3 1.3431458-3 3-3zm-6 2.5v1h1v-1zm11 0v1h1v-1zm-8.84375 3.65625-.71875.71875c.2107454.247896.4396045.476755.6875.6875l.71875-.71875c-.2469414-.203794-.4837059-.440559-.6875-.6875zm7.6875 0c-.203794.246941-.440559.483706-.6875.6875l.71875.71875c.247896-.210745.476755-.439604.6875-.6875zm-4.34375 1.84375v1h1v-1z" fill="#4d4d4d"/></svg>

<svg xmlns="http://www.w3.org/2000/svg" viewBox="0 0 16 16">
     />
 <path 
     style="fill:#4d4d4d" 
     d="M 7.5 2 L 7.5 3 L 8.5 3 L 8.5 2 L 7.5 2 z M 4.125 3.4375 C 3.8771045 3.6482454 3.6482454 3.8771045 3.4375 4.125 L 4.15625 4.84375 C 4.3600441 4.5968086 4.5968086 4.3600441 4.84375 4.15625 L 4.125 3.4375 z M 11.875 3.4375 L 11.15625 4.15625 C 11.403191 4.3600441 11.639956 4.5968086 11.84375 4.84375 L 12.5625 4.125 C 12.351755 3.8771045 12.122896 3.6482454 11.875 3.4375 z M 8 4 C 5.7908613 4 4 5.7908607 4 8 C 4 10.209139 5.7908613 12 8 12 C 10.209139 12 12 10.209139 12 8 C 12 5.7908607 10.209139 4 8 4 z M 8 5 C 9.6568542 5 11 6.3431455 11 8 C 11 9.6568545 9.6568542 11 8 11 C 6.3431458 11 5 9.6568545 5 8 C 5 6.3431455 6.3431458 5 8 5 z M 2 7.5 L 2 8.5 L 3 8.5 L 3 7.5 L 2 7.5 z M 13 7.5 L 13 8.5 L 14 8.5 L 14 7.5 L 13 7.5 z M 4.15625 11.15625 L 3.4375 11.875 C 3.6482454 12.122896 3.8771045 12.351755 4.125 12.5625 L 4.84375 11.84375 C 4.5968086 11.639956 4.3600441 11.403191 4.15625 11.15625 z M 11.84375 11.15625 C 11.639956 11.403191 11.403191 11.639956 11.15625 11.84375 L 11.875 12.5625 C 12.122896 12.351755 12.351755 12.122896 12.5625 11.875 L 11.84375 11.15625 z M 7.5 13 L 7.5 14 L 8.5 14 L 8.5 13 L 7.5 13 z "
     />
 </svg>
